X:1
T:Steal Away - Seconds  "CYMRU"
M:6/8
L:1/8
Q:80
C:
S:Slow Air
K:HP
|: A | \
{g}d2ec3 | \
{g}c/2e3/2f-f2c | \
{g}G2B{g}e2d |
{g}d/2A3/2Bc3 | | \
{g}d2ec3 | \
{g}c/2e3/2f-f2c |
{g}G/2e3/2c{g}c3/2B/2{g}c | \
{g}f3a{A}e3 :|
